resources/svg/speed-mini-line.svg

<svg fill="currentColor" viewBox="0 0 24 24" xmlns="http://www.w3.org/2000/svg"><path d="M9.03189 11.9999L6 9.85977V14.1401L9.03189 11.9999ZM4.78834 17.4434C4.70398 17.503 4.60326 17.535 4.5 17.535C4.22386 17.535 4 17.3111 4 17.035V6.96488C4 6.86163 4.03197 6.7609 4.09152 6.67654C4.25076 6.45094 4.56274 6.39715 4.78834 6.5564L11.9213 11.5914C11.9679 11.6243 12.0086 11.665 12.0415 11.7116C12.2007 11.9372 12.1469 12.2492 11.9213 12.4084L4.78834 17.4434ZM15 14.1401L18.0319 11.9999L15 9.85977V14.1401ZM13 6.96488C13 6.86163 13.032 6.7609 13.0915 6.67654C13.2508 6.45094 13.5627 6.39715 13.7883 6.5564L20.9213 11.5914C20.9679 11.6243 21.0086 11.665 21.0415 11.7116C21.2007 11.9372 21.1469 12.2492 20.9213 12.4084L13.7883 17.4434C13.704 17.503 13.6033 17.535 13.5 17.535C13.2239 17.535 13 17.3111 13 17.035V6.96488Z"/></svg>

<svg xmlns="http://www.w3.org/2000/svg" viewBox="0 0 24 24" fill="currentColor">
    <g>
        <path fill="none" d="M0 0h24v24H0z"/>
        <path d="M9.032 12L6 9.86v4.28L9.032 12zm-4.244 5.444A.5.5 0 0 1 4 17.035V6.965a.5.5 0 0 1 .788-.409l7.133 5.036a.5.5 0 0 1 0 .816l-7.133 5.036zM15 14.14L18.032 12 15 9.86v4.28zm-2-7.175a.5.5 0 0 1 .788-.409l7.133 5.036a.5.5 0 0 1 0 .816l-7.133 5.036a.5.5 0 0 1-.788-.409V6.965z"/>
    </g>
</svg>
